images/51022209.svg

<?xml version="1.0" encoding="UTF-8"?>
<svg xmlns="http://www.w3.org/2000/svg" xmlns:xlink="http://www.w3.org/1999/xlink" width="300pt" height="300pt" viewBox="0 0 300 300" version="1.1">
<defs>
<g>
<symbol overflow="visible" id="glyph0-0">
<path style="stroke:none;" d="M 0.453125 1.59375 L 0.453125 -6.34375 L 4.953125 -6.34375 L 4.953125 1.59375 Z M 0.953125 1.09375 L 4.453125 1.09375 L 4.453125 -5.84375 L 0.953125 -5.84375 Z M 0.953125 1.09375 "/>
</symbol>
<symbol overflow="visible" id="glyph0-1">
<path style="stroke:none;" d="M 0.890625 -6.5625 L 4.65625 -6.5625 L 4.65625 -5.8125 L 1.765625 -5.8125 L 1.765625 -3.875 L 4.375 -3.875 L 4.375 -3.140625 L 1.765625 -3.140625 L 1.765625 0 L 0.890625 0 Z M 0.890625 -6.5625 "/>
</symbol>
<symbol overflow="visible" id="glyph0-2">
<path style="stroke:none;" d="M 0.890625 -6.5625 L 2.078125 -6.5625 L 4.984375 -1.078125 L 4.984375 -6.5625 L 5.84375 -6.5625 L 5.84375 0 L 4.65625 0 L 1.75 -5.484375 L 1.75 0 L 0.890625 0 Z M 0.890625 -6.5625 "/>
</symbol>
<symbol overflow="visible" id="glyph0-3">
<path style="stroke:none;" d="M 3.546875 -5.953125 C 2.898438 -5.953125 2.382812 -5.710938 2 -5.234375 C 1.625 -4.753906 1.4375 -4.101562 1.4375 -3.28125 C 1.4375 -2.445312 1.625 -1.789062 2 -1.3125 C 2.382812 -0.832031 2.898438 -0.59375 3.546875 -0.59375 C 4.191406 -0.59375 4.703125 -0.832031 5.078125 -1.3125 C 5.453125 -1.789062 5.640625 -2.445312 5.640625 -3.28125 C 5.640625 -4.101562 5.453125 -4.753906 5.078125 -5.234375 C 4.703125 -5.710938 4.191406 -5.953125 3.546875 -5.953125 Z M 3.546875 -6.6875 C 4.460938 -6.6875 5.195312 -6.375 5.75 -5.75 C 6.300781 -5.132812 6.578125 -4.3125 6.578125 -3.28125 C 6.578125 -2.238281 6.300781 -1.410156 5.75 -0.796875 C 5.195312 -0.179688 4.460938 0.125 3.546875 0.125 C 2.617188 0.125 1.878906 -0.179688 1.328125 -0.796875 C 0.773438 -1.410156 0.5 -2.238281 0.5 -3.28125 C 0.5 -4.3125 0.773438 -5.132812 1.328125 -5.75 C 1.878906 -6.375 2.617188 -6.6875 3.546875 -6.6875 Z M 3.546875 -6.6875 "/>
</symbol>
<symbol overflow="visible" id="glyph0-4">
<path style="stroke:none;" d="M 0.890625 -6.5625 L 1.765625 -6.5625 L 1.765625 -3.875 L 5 -3.875 L 5 -6.5625 L 5.890625 -6.5625 L 5.890625 0 L 5 0 L 5 -3.125 L 1.765625 -3.125 L 1.765625 0 L 0.890625 0 Z M 0.890625 -6.5625 "/>
</symbol>
</g>
</defs>
<g id="surface22717">
<rect x="0" y="0" width="300" height="300" style="fill:rgb(100%,100%,100%);fill-opacity:1;stroke:none;"/>
<path style="fill:none;stroke-width:1.2;stroke-linecap:butt;stroke-linejoin:miter;stroke:rgb(20%,80%,80%);stroke-opacity:1;stroke-miterlimit:10;" d="M 87.636719 214.5625 L 90.234375 204.03125 "/>
<path style="fill:none;stroke-width:1.2;stroke-linecap:butt;stroke-linejoin:miter;stroke:rgb(0%,0%,0%);stroke-opacity:1;stroke-miterlimit:10;" d="M 90.234375 204.03125 L 92.835938 193.5 "/>
<path style=" stroke:none;fill-rule:nonzero;fill:rgb(100%,100%,100%);fill-opacity:1;" d="M 84.636719 209.0625 L 90.636719 209.0625 L 90.636719 220.0625 L 84.636719 220.0625 Z M 84.636719 209.0625 "/>
<g style="fill:rgb(20%,80%,80%);fill-opacity:1;">
  <use xlink:href="#glyph0-1" x="84.636719" y="217.725586"/>
</g>
<path style="fill:none;stroke-width:1.2;stroke-linecap:butt;stroke-linejoin:miter;stroke:rgb(0%,0%,0%);stroke-opacity:1;stroke-miterlimit:10;" d="M 92.835938 193.5 L 77.195312 178.46875 "/>
<path style="fill:none;stroke-width:1.2;stroke-linecap:butt;stroke-linejoin:miter;stroke:rgb(0%,0%,0%);stroke-opacity:1;stroke-miterlimit:10;" d="M 94.808594 188.316406 L 82.296875 176.289062 "/>
<path style="fill:none;stroke-width:1.2;stroke-linecap:butt;stroke-linejoin:miter;stroke:rgb(0%,0%,0%);stroke-opacity:1;stroke-miterlimit:10;" d="M 113.675781 187.472656 L 92.835938 193.5 "/>
<path style="fill:none;stroke-width:1.2;stroke-linecap:butt;stroke-linejoin:miter;stroke:rgb(0%,0%,0%);stroke-opacity:1;stroke-miterlimit:10;" d="M 77.195312 178.46875 L 82.394531 157.40625 "/>
<path style="fill:none;stroke-width:1.2;stroke-linecap:butt;stroke-linejoin:miter;stroke:rgb(0%,0%,0%);stroke-opacity:1;stroke-miterlimit:10;" d="M 82.394531 157.40625 L 103.234375 151.378906 "/>
<path style="fill:none;stroke-width:1.2;stroke-linecap:butt;stroke-linejoin:miter;stroke:rgb(0%,0%,0%);stroke-opacity:1;stroke-miterlimit:10;" d="M 85.894531 161.707031 L 102.566406 156.882812 "/>
<path style="fill:none;stroke-width:1.2;stroke-linecap:butt;stroke-linejoin:miter;stroke:rgb(0%,0%,0%);stroke-opacity:1;stroke-miterlimit:10;" d="M 82.394531 157.40625 L 66.753906 142.371094 "/>
<path style="fill:none;stroke-width:1.2;stroke-linecap:butt;stroke-linejoin:miter;stroke:rgb(0%,0%,0%);stroke-opacity:1;stroke-miterlimit:10;" d="M 103.234375 151.378906 L 118.875 166.410156 "/>
<path style="fill:none;stroke-width:1.2;stroke-linecap:butt;stroke-linejoin:miter;stroke:rgb(0%,0%,0%);stroke-opacity:1;stroke-miterlimit:10;" d="M 118.875 166.410156 L 139.714844 160.382812 "/>
<path style="fill:none;stroke-width:1.2;stroke-linecap:butt;stroke-linejoin:miter;stroke:rgb(0%,0%,0%);stroke-opacity:1;stroke-miterlimit:10;" d="M 118.875 166.410156 L 113.675781 187.472656 "/>
<path style="fill:none;stroke-width:1.2;stroke-linecap:butt;stroke-linejoin:miter;stroke:rgb(0%,0%,0%);stroke-opacity:1;stroke-miterlimit:10;" d="M 113.398438 167.292969 L 109.238281 184.144531 "/>
<path style="fill:none;stroke-width:1.2;stroke-linecap:butt;stroke-linejoin:miter;stroke:rgb(0%,0%,0%);stroke-opacity:1;stroke-miterlimit:10;" d="M 139.714844 160.382812 L 147.535156 167.898438 "/>
<path style="fill:none;stroke-width:1.2;stroke-linecap:butt;stroke-linejoin:miter;stroke:rgb(0%,0%,100%);stroke-opacity:1;stroke-miterlimit:10;" d="M 147.535156 167.898438 L 155.355469 175.414062 "/>
<path style="fill:none;stroke-width:1.2;stroke-linecap:butt;stroke-linejoin:miter;stroke:rgb(0%,0%,0%);stroke-opacity:1;stroke-miterlimit:10;" d="M 144.8125 158.207031 L 151.070312 164.21875 "/>
<path style="fill:none;stroke-width:1.2;stroke-linecap:butt;stroke-linejoin:miter;stroke:rgb(0%,0%,100%);stroke-opacity:1;stroke-miterlimit:10;" d="M 151.070312 164.21875 L 157.328125 170.230469 "/>
<path style="fill:none;stroke-width:1.2;stroke-linecap:butt;stroke-linejoin:miter;stroke:rgb(0%,0%,0%);stroke-opacity:1;stroke-miterlimit:10;" d="M 144.910156 139.320312 L 139.714844 160.382812 "/>
<path style="fill:none;stroke-width:1.2;stroke-linecap:butt;stroke-linejoin:miter;stroke:rgb(0%,0%,100%);stroke-opacity:1;stroke-miterlimit:10;" d="M 155.355469 175.414062 L 165.773438 172.402344 "/>
<path style="fill:none;stroke-width:1.2;stroke-linecap:butt;stroke-linejoin:miter;stroke:rgb(0%,0%,0%);stroke-opacity:1;stroke-miterlimit:10;" d="M 165.773438 172.402344 L 176.191406 169.386719 "/>
<path style=" stroke:none;fill-rule:nonzero;fill:rgb(100%,100%,100%);fill-opacity:1;" d="M 152.355469 169.914062 L 159.355469 169.914062 L 159.355469 180.914062 L 152.355469 180.914062 Z M 152.355469 169.914062 "/>
<g style="fill:rgb(0%,0%,100%);fill-opacity:1;">
  <use xlink:href="#glyph0-2" x="152.355469" y="178.577148"/>
</g>
<path style="fill:none;stroke-width:1.2;stroke-linecap:butt;stroke-linejoin:miter;stroke:rgb(0%,0%,0%);stroke-opacity:1;stroke-miterlimit:10;" d="M 176.191406 169.386719 L 181.390625 148.324219 "/>
<path style="fill:none;stroke-width:1.2;stroke-linecap:butt;stroke-linejoin:miter;stroke:rgb(0%,0%,0%);stroke-opacity:1;stroke-miterlimit:10;" d="M 171.757812 166.058594 L 175.917969 149.207031 "/>
<path style="fill:none;stroke-width:1.2;stroke-linecap:butt;stroke-linejoin:miter;stroke:rgb(0%,0%,0%);stroke-opacity:1;stroke-miterlimit:10;" d="M 181.390625 148.324219 L 165.75 133.292969 "/>
<path style="fill:none;stroke-width:1.2;stroke-linecap:butt;stroke-linejoin:miter;stroke:rgb(0%,0%,0%);stroke-opacity:1;stroke-miterlimit:10;" d="M 181.390625 148.324219 L 202.230469 142.296875 "/>
<path style="fill:none;stroke-width:1.2;stroke-linecap:butt;stroke-linejoin:miter;stroke:rgb(0%,0%,0%);stroke-opacity:1;stroke-miterlimit:10;" d="M 165.75 133.292969 L 144.910156 139.320312 "/>
<path style="fill:none;stroke-width:1.2;stroke-linecap:butt;stroke-linejoin:miter;stroke:rgb(0%,0%,0%);stroke-opacity:1;stroke-miterlimit:10;" d="M 165.085938 138.796875 L 148.414062 143.621094 "/>
<path style="fill:none;stroke-width:1.2;stroke-linecap:butt;stroke-linejoin:miter;stroke:rgb(0%,0%,0%);stroke-opacity:1;stroke-miterlimit:10;" d="M 204.710938 142.910156 L 207.308594 132.378906 "/>
<path style="fill:none;stroke-width:1.2;stroke-linecap:butt;stroke-linejoin:miter;stroke:rgb(100%,0%,0%);stroke-opacity:1;stroke-miterlimit:10;" d="M 207.308594 132.378906 L 209.910156 121.847656 "/>
<path style="fill:none;stroke-width:1.2;stroke-linecap:butt;stroke-linejoin:miter;stroke:rgb(0%,0%,0%);stroke-opacity:1;stroke-miterlimit:10;" d="M 199.753906 141.683594 L 202.351562 131.15625 "/>
<path style="fill:none;stroke-width:1.2;stroke-linecap:butt;stroke-linejoin:miter;stroke:rgb(100%,0%,0%);stroke-opacity:1;stroke-miterlimit:10;" d="M 202.351562 131.15625 L 204.953125 120.625 "/>
<path style="fill:none;stroke-width:1.2;stroke-linecap:butt;stroke-linejoin:miter;stroke:rgb(0%,0%,0%);stroke-opacity:1;stroke-miterlimit:10;" d="M 202.230469 142.296875 L 210.050781 149.8125 "/>
<path style="fill:none;stroke-width:1.2;stroke-linecap:butt;stroke-linejoin:miter;stroke:rgb(0%,0%,100%);stroke-opacity:1;stroke-miterlimit:10;" d="M 210.050781 149.8125 L 217.871094 157.332031 "/>
<path style=" stroke:none;fill-rule:nonzero;fill:rgb(100%,100%,100%);fill-opacity:1;" d="M 203.429688 115.734375 L 211.429688 115.734375 L 211.429688 126.734375 L 203.429688 126.734375 Z M 203.429688 115.734375 "/>
<g style="fill:rgb(100%,0%,0%);fill-opacity:1;">
  <use xlink:href="#glyph0-3" x="203.429688" y="124.397461"/>
</g>
<path style="fill:none;stroke-width:1;stroke-linecap:butt;stroke-linejoin:miter;stroke:rgb(0%,0%,0%);stroke-opacity:1;stroke-miterlimit:10;" d="M 238.710938 151.300781 L 238.710938 151.300781 M 235.730469 151.621094 L 236.019531 152.625 M 232.746094 151.941406 L 233.324219 153.945312 M 229.761719 152.261719 L 230.632812 155.265625 M 226.78125 152.582031 L 227.9375 156.589844 M 223.796875 152.902344 L 225.246094 157.910156 M 220.8125 153.222656 L 222.554688 159.234375 M 217.832031 153.542969 L 219.859375 160.554688 M 216.808594 153.652344 L 218.9375 161.007812 "/>
<path style=" stroke:none;fill-rule:nonzero;fill:rgb(100%,100%,100%);fill-opacity:1;" d="M 210.871094 151.832031 L 224.871094 151.832031 L 224.871094 162.832031 L 210.871094 162.832031 Z M 210.871094 151.832031 "/>
<g style="fill:rgb(0%,0%,100%);fill-opacity:1;">
  <use xlink:href="#glyph0-2" x="210.871094" y="160.495117"/>
  <use xlink:href="#glyph0-4" x="217.848633" y="160.495117"/>
</g>
<path style="fill:none;stroke-width:1.2;stroke-linecap:butt;stroke-linejoin:miter;stroke:rgb(0%,0%,0%);stroke-opacity:1;stroke-miterlimit:10;" d="M 238.710938 151.300781 L 243.910156 130.242188 "/>
<path style="fill:none;stroke-width:1.2;stroke-linecap:butt;stroke-linejoin:miter;stroke:rgb(0%,0%,0%);stroke-opacity:1;stroke-miterlimit:10;" d="M 238.710938 151.300781 L 254.351562 166.335938 "/>
<path style="fill:none;stroke-width:1.2;stroke-linecap:butt;stroke-linejoin:miter;stroke:rgb(0%,0%,0%);stroke-opacity:1;stroke-miterlimit:10;" d="M 243.910156 130.242188 L 264.75 124.210938 "/>
<path style="fill:none;stroke-width:1.2;stroke-linecap:butt;stroke-linejoin:miter;stroke:rgb(0%,0%,0%);stroke-opacity:1;stroke-miterlimit:10;" d="M 243.910156 130.242188 L 228.269531 115.207031 "/>
<path style="fill:none;stroke-width:1.2;stroke-linecap:butt;stroke-linejoin:miter;stroke:rgb(0%,0%,0%);stroke-opacity:1;stroke-miterlimit:10;" d="M 113.675781 187.472656 L 129.316406 202.503906 "/>
<path style="fill:none;stroke-width:1.2;stroke-linecap:butt;stroke-linejoin:miter;stroke:rgb(0%,0%,0%);stroke-opacity:1;stroke-miterlimit:10;" d="M 66.042969 139.921875 L 55.625 142.933594 "/>
<path style="fill:none;stroke-width:1.2;stroke-linecap:butt;stroke-linejoin:miter;stroke:rgb(100%,0%,0%);stroke-opacity:1;stroke-miterlimit:10;" d="M 55.625 142.933594 L 45.203125 145.949219 "/>
<path style="fill:none;stroke-width:1.2;stroke-linecap:butt;stroke-linejoin:miter;stroke:rgb(0%,0%,0%);stroke-opacity:1;stroke-miterlimit:10;" d="M 67.460938 144.824219 L 57.042969 147.839844 "/>
<path style="fill:none;stroke-width:1.2;stroke-linecap:butt;stroke-linejoin:miter;stroke:rgb(100%,0%,0%);stroke-opacity:1;stroke-miterlimit:10;" d="M 57.042969 147.839844 L 46.621094 150.851562 "/>
<path style="fill:none;stroke-width:1.2;stroke-linecap:butt;stroke-linejoin:miter;stroke:rgb(0%,0%,0%);stroke-opacity:1;stroke-miterlimit:10;" d="M 66.753906 142.371094 L 69.351562 131.839844 "/>
<path style="fill:none;stroke-width:1.2;stroke-linecap:butt;stroke-linejoin:miter;stroke:rgb(0%,0%,100%);stroke-opacity:1;stroke-miterlimit:10;" d="M 69.351562 131.839844 L 71.953125 121.308594 "/>
<path style=" stroke:none;fill-rule:nonzero;fill:rgb(100%,100%,100%);fill-opacity:1;" d="M 37.914062 142.902344 L 45.914062 142.902344 L 45.914062 153.902344 L 37.914062 153.902344 Z M 37.914062 142.902344 "/>
<g style="fill:rgb(100%,0%,0%);fill-opacity:1;">
  <use xlink:href="#glyph0-3" x="37.914062" y="151.56543"/>
</g>
<path style="fill:none;stroke-width:1.2;stroke-linecap:butt;stroke-linejoin:miter;stroke:rgb(0%,0%,100%);stroke-opacity:1;stroke-miterlimit:10;" d="M 71.953125 121.308594 L 64.132812 113.792969 "/>
<path style="fill:none;stroke-width:1.2;stroke-linecap:butt;stroke-linejoin:miter;stroke:rgb(0%,0%,0%);stroke-opacity:1;stroke-miterlimit:10;" d="M 64.132812 113.792969 L 56.3125 106.277344 "/>
<path style=" stroke:none;fill-rule:nonzero;fill:rgb(100%,100%,100%);fill-opacity:1;" d="M 64.953125 115.808594 L 78.953125 115.808594 L 78.953125 126.808594 L 64.953125 126.808594 Z M 64.953125 115.808594 "/>
<g style="fill:rgb(0%,0%,100%);fill-opacity:1;">
  <use xlink:href="#glyph0-2" x="64.953125" y="124.47168"/>
  <use xlink:href="#glyph0-4" x="71.930664" y="124.47168"/>
</g>
<path style="fill:none;stroke-width:1.2;stroke-linecap:butt;stroke-linejoin:miter;stroke:rgb(0%,0%,0%);stroke-opacity:1;stroke-miterlimit:10;" d="M 56.3125 106.277344 L 35.25 101.078125 "/>
<path style="fill:none;stroke-width:1.2;stroke-linecap:butt;stroke-linejoin:miter;stroke:rgb(0%,0%,0%);stroke-opacity:1;stroke-miterlimit:10;" d="M 50.285156 85.4375 L 56.3125 106.277344 "/>
<path style="fill:none;stroke-width:1.2;stroke-linecap:butt;stroke-linejoin:miter;stroke:rgb(0%,0%,0%);stroke-opacity:1;stroke-miterlimit:10;" d="M 35.25 101.078125 L 50.285156 85.4375 "/>
</g>
</svg>

<svg xmlns="http://www.w3.org/2000/svg" xmlns:xlink="http://www.w3.org/1999/xlink" width="300pt" height="300pt" viewBox="0 0 300 300"><defs><symbol overflow="visible"><path d="M.453 1.594v-7.938h4.5v7.938zm.5-.5h3.5v-6.938h-3.5zm0 0"/></symbol><symbol overflow="visible" id="a"><path d="M.89-6.563h3.766v.75h-2.89v1.938h2.61v.734h-2.61V0H.89zm0 0"/></symbol><symbol overflow="visible" id="b"><path d="M.89-6.563H2.08l2.906 5.485v-5.484h.86V0H4.656L1.75-5.484V0H.89zm0 0"/></symbol><symbol overflow="visible" id="c"><path d="M3.547-5.953c-.65 0-1.164.242-1.547.72-.375.48-.563 1.13-.563 1.952 0 .835.188 1.49.563 1.967.383.48.898.72 1.547.72.644 0 1.156-.24 1.53-.72.376-.476.564-1.132.564-1.968 0-.822-.187-1.474-.562-1.954-.375-.477-.887-.72-1.53-.72zm0-.734c.914 0 1.648.312 2.203.937.55.617.828 1.438.828 2.47 0 1.042-.277 1.87-.828 2.483-.555.617-1.29.922-2.203.922-.93 0-1.668-.305-2.22-.922C.774-1.41.5-2.237.5-3.28c0-1.033.273-1.853.828-2.47.55-.625 1.29-.938 2.22-.938zm0 0"/></symbol><symbol overflow="visible" id="d"><path d="M.89-6.563h.876v2.688H5v-2.688h.89V0H5v-3.125H1.766V0H.89zm0 0"/></symbol></defs><g><path fill="#fff" d="M0 0h300v300H0z"/><path d="M87.637 214.563l2.597-10.532" stroke-width="1.2" stroke="#3cc" stroke-miterlimit="10" fill="none"/><path d="M90.234 204.03l2.602-10.53" stroke-width="1.2" stroke="#000" stroke-miterlimit="10" fill="none"/><path d="M84.637 209.063h6v11h-6zm0 0" fill="#fff"/><use xlink:href="#a" x="84.637" y="217.726" fill="#3cc"/><path d="M92.836 193.5l-15.64-15.03M94.81 188.316L82.296 176.29M113.676 187.473l-20.84 6.027M77.195 178.47l5.2-21.064M82.395 157.406l20.84-6.027M85.895 161.707l16.67-4.824M82.395 157.406l-15.64-15.035M103.234 151.38l15.64 15.03M118.875 166.41l20.84-6.027M118.875 166.41l-5.2 21.063M113.398 167.293l-4.16 16.852M139.715 160.383l7.82 7.515" stroke-width="1.2" stroke="#000" stroke-miterlimit="10" fill="none"/><path d="M147.535 167.898l7.82 7.516" stroke-width="1.2" stroke="#00f" stroke-miterlimit="10" fill="none"/><path d="M144.813 158.207l6.257 6.012" stroke-width="1.2" stroke="#000" stroke-miterlimit="10" fill="none"/><path d="M151.07 164.22l6.258 6.01" stroke-width="1.2" stroke="#00f" stroke-miterlimit="10" fill="none"/><path d="M144.91 139.32l-5.195 21.063" stroke-width="1.2" stroke="#000" stroke-miterlimit="10" fill="none"/><path d="M155.355 175.414l10.418-3.012" stroke-width="1.2" stroke="#00f" stroke-miterlimit="10" fill="none"/><path d="M165.773 172.402l10.418-3.015" stroke-width="1.2" stroke="#000" stroke-miterlimit="10" fill="none"/><path d="M152.355 169.914h7v11h-7zm0 0" fill="#fff"/><use xlink:href="#b" x="152.355" y="178.577" fill="#00f"/><path d="M176.19 169.387l5.2-21.063M171.758 166.06l4.16-16.853M181.39 148.324l-15.64-15.03M181.39 148.324l20.84-6.027M165.75 133.293l-20.84 6.027M165.086 138.797l-16.672 4.824M204.71 142.91l2.6-10.53" stroke-width="1.2" stroke="#000" stroke-miterlimit="10" fill="none"/><path d="M207.31 132.38l2.6-10.532" stroke-width="1.2" stroke="#f00" stroke-miterlimit="10" fill="none"/><path d="M199.754 141.684l2.598-10.528" stroke-width="1.2" stroke="#000" stroke-miterlimit="10" fill="none"/><path d="M202.352 131.156l2.6-10.53" stroke-width="1.2" stroke="#f00" stroke-miterlimit="10" fill="none"/><path d="M202.23 142.297l7.82 7.516" stroke-width="1.2" stroke="#000" stroke-miterlimit="10" fill="none"/><path d="M210.05 149.813l7.82 7.52" stroke-width="1.2" stroke="#00f" stroke-miterlimit="10" fill="none"/><path d="M203.43 115.734h8v11h-8zm0 0" fill="#fff"/><use xlink:href="#c" x="203.43" y="124.397" fill="#f00"/><path d="M238.71 151.3m-2.98.32l.29 1.005m-3.274-.684l.578 2.005m-3.562-1.683l.87 3.004m-3.85-2.684l1.155 4.008m-4.14-3.688l1.45 5.008m-4.435-4.687l1.743 6.01m-4.723-5.69l2.027 7.012m-3.05-6.903l2.127 7.356" stroke="#000" stroke-miterlimit="10" fill="none"/><path d="M210.87 151.832h14v11h-14zm0 0" fill="#fff"/><g fill="#00f"><use xlink:href="#b" x="210.871" y="160.495"/><use xlink:href="#d" x="217.849" y="160.495"/></g><path d="M238.71 151.3l5.2-21.058M238.71 151.3l15.642 15.036M243.91 130.242l20.84-6.03M243.91 130.242l-15.64-15.035M113.676 187.473l15.64 15.03M66.043 139.922l-10.418 3.012" stroke-width="1.2" stroke="#000" stroke-miterlimit="10" fill="none"/><path d="M55.625 142.934l-10.422 3.015" stroke-width="1.2" stroke="#f00" stroke-miterlimit="10" fill="none"/><path d="M67.46 144.824l-10.417 3.016" stroke-width="1.2" stroke="#000" stroke-miterlimit="10" fill="none"/><path d="M57.043 147.84l-10.422 3.012" stroke-width="1.2" stroke="#f00" stroke-miterlimit="10" fill="none"/><path d="M66.754 142.37l2.598-10.53" stroke-width="1.2" stroke="#000" stroke-miterlimit="10" fill="none"/><path d="M69.352 131.84l2.6-10.53" stroke-width="1.2" stroke="#00f" stroke-miterlimit="10" fill="none"/><path d="M37.914 142.902h8v11h-8zm0 0" fill="#fff"/><use xlink:href="#c" x="37.914" y="151.565" fill="#f00"/><path d="M71.953 121.31l-7.82-7.517" stroke-width="1.2" stroke="#00f" stroke-miterlimit="10" fill="none"/><path d="M64.133 113.793l-7.82-7.516" stroke-width="1.2" stroke="#000" stroke-miterlimit="10" fill="none"/><path d="M64.953 115.81h14v11h-14zm0 0" fill="#fff"/><g fill="#00f"><use xlink:href="#b" x="64.953" y="124.472"/><use xlink:href="#d" x="71.931" y="124.472"/></g><path d="M56.313 106.277l-21.063-5.2M50.285 85.438l6.028 20.84M35.25 101.078l15.035-15.64" stroke-width="1.2" stroke="#000" stroke-miterlimit="10" fill="none"/></g></svg>
